X:24
T:Miss McLeod's
M:C
K:G
L:1/8
|: G2 BG dGBA|G2 BA BcBA| G2 BG dGBG|AGFG AcBA|
G2 BG dGBA|B2 BA B^c d2|efed (3B^cd ef|gedB AcBA :|
|:G2 gf efge|B2 BA B^c d2|g2 gf efge|agab agef|
g2 gf efge|B2 BA B^c d2|efed (3B^cd ef|gedB AcBA :|
